X:1

T:Devine’s Hornpipe

M:2/4

L:1/8

R:Hornpipe

S:Ryan’s Mammoth Collection (1883)

Z:AK/Fiddler’s Companion

K:D

D/F/A/d/ B/d/A/d/|e/f/g/f/ e/d/B/d/|D/F/A/d/ B/d/A/d/|g/f/e/d/ c/e/A/c/|D/F/A/d/ B/d/A/d/|

e/f/g/f/ e/d/c/d/|g/b/a/g/ f/e/d/c/|ddd :: (f/g/)|a/f/d/f/ c/e/A/c/|d/c/d/A/ B/A/F/A/|

G/B/F/A/ E/G/D/F/|A/g/B/e/ d/c/B/A/|a/f/d/f/ c/e/A/c/|d/f/c/e/ D/F/A/D/|G/B/E/A/ g/f/e/c/|ddd:|

           

DEVIZES.  American, Air or March (4/4 time). A Major. Standard tuning. AABB. Composed by Isaac Tucker. Miller, from the Bridgewater Collection of Sacred Music (Boston, 1812). Miller (Fiddler’s Throne), 2004; No. 334, pg. 197.

           

DEVLIN’S. Irish, Jig. B Minor. Standard tuning. AABB. Songer (Portland Collection), 1997; pg. 61. Green Linnett SIF1144, Kevin Burke & Open House - “Second Story.”

                       

DEVONSHIRE GO, THE. English, Jig. B Flat Major. Standard tuning. AABB. Cahusac (Annual Collection of Twenty Four Favorite Country Dances for 1809), 1809; No. 15.

